X:0325
T:Ross Castle.
N:2 sharps in the book.
N:The book bars it in 2/4.  It seems to be a precursor of the 3/4 pipe march.
M:3/4
L:1/16
Q:1/4=104
I: || :: :|
Z:Jack Campin * www.campin.me.uk * 2009
K:G
 dc |B4   A4   G2G2|cBAG FGAB A2dc  |B4   A4   G2G2|ABcA B2G2 G2:|
 dc |B2G2 A2D2 G2G2|cBAG FGAB A2(dc)|B2G2 A2D2 G2G2|ABcA B2G2 G2:|
(dc)|BcdB ABcA G2G2|cBAG FGAB A2dc  |BcdB ABcA G2G2|ABcA B2G2 G2:|

